X:1
T:Title
%%score 1 2 3
L:1/8
M:3/2
K:C
V:1 treble nm="Part_1"
V:2 treble-8 nm="Part_2"
V:3 treble-8 nm="Part_3"
V:1
 c8 c4 | B2 A4 G2 A2 B2 | c4 z4 d2 c2- | c2 B2 A4 G2 F2- | F2 G2 E4 F2 D2 | F4 z4 z4 | A4 A4 A4 | %7
 _B8 A4 | G4 G2 F4 E2 | G4 z4 G4 | A8 B4 | c8 B4 | A8 G4 | F4 z2 E2 F2 G2 | A2 _B2 A2 G2 G2 F2 | %15
 A4 z4 z4 | c12 | B8 A4 | G4 z4 G4 | A2 B2 c2 c2 B2 A2 | c4 z4 c4 | %21
 (3:2:2A4 G2 z4/3 (3:2:4A4 G2 A2 F2 | (3E2 z2 E2 z4/3 (3:2:5F2 G2 A2 B2 c2 | %23
 (3z2 d2 c2 z4/3 (3_B4 G4 F2 | (3:2:1A6 z8/3 (3A2 c4 B2 | (3:2:2G4 F2 z4/3 (3:2:5G2 F2 E2 z2 D2 | %26
 (3E2 F2 G2 z4/3 (3:2:5G2 F2 E2 F2 D2 | F12 |] %28
V:2
[K:F] c12 | f4 f2 e2 d4 | c12 | F6 B6 | A6 G6 | F12 | f4 e2 d4 c2 | B6 F6 | c4 B4 A4 | G12 | %10
 z2 d4 d4 d2 | c4 c2 d4 e2 | f6 e6 | d6 c6 | A6 B6 | A12 | z2 z2 F2 F4 F2 | z2 G4 F4 F2 | c6 e6 | %19
 f6 d6 | c6- c4 c2 | d2 e2 f2 f2 e2 d2 | c4 c2 c2 A4 | F4 c2 d2 B4 | A2 z2 d2 c4 d2 | %25
 e4 f2 d2 c2 B2 | A2 B2 c2 F2 G4 | F12 |] %28
V:3
[K:F] F8 z2 F2- | F2 F2 c4 G4 | z2 g2 e2 c2 d2 e2 | f4 f2 d4 d2 | c4 c2 B4 A2 | c4 B2 A4 G2 | %6
 F4 z4 f2 e2 | f2 g2 d2 c2 f4- | f2 e4 d2 c4 | z2 d4 d4 d2 | f8 f4 | F8 G4 | F4 z2 c2 G2 A2 | %13
 B4 A8 | c4 d8 | e4 f2 e2 e2 d2 | f4 z4 f4 | d4 z4 f4 | e4 c8 | F8 f4 | g4 f2 c2 d2 e2 | f4 F4 G4 | %22
 A8 z2 c2- | c2 f2 e4 d4 | z2 d2 f2 e2 f2 d2 | c4 F4 A4 | c4 F2 c2 B2 A2 | c4 c8 |] %28

